icons/glyphs/glyph-gps.svg

<?xml version="1.0" encoding="UTF-8" standalone="no"?><svg height="22" viewBox="0 0 5.8208332 5.8208335" width="22" xmlns="http://www.w3.org/2000/svg"><sodipodi:namedview/><metadata><rdf:RDF><cc:Work><dc:format>image/svg+xml</dc:format><dc:type/><dc:title/></cc:Work></rdf:RDF></metadata><path d="m11 0c-3.8087527 0-6.875 3.0662473-6.875 6.875 0 1.1624523.3131787 2.2372522.8183594 3.195312l6.0566406 11.929688 6.056641-11.929688c.50518-.9580598.818359-2.0328597.818359-3.195312 0-3.8087527-3.066248-6.875-6.875-6.875zm0 3.1933594a3.370281 3.370281 0 0 1 3.371094 3.3710937 3.370281 3.370281 0 0 1 -3.371094 3.3710938 3.370281 3.370281 0 0 1 -3.3710938-3.3710938 3.370281 3.370281 0 0 1 3.3710938-3.3710937z" fill="#d0d0d0" transform="scale(.26458333)"/></svg>

<?xml version="1.0" encoding="UTF-8" standalone="no"?>
<!-- Created with Inkscape (http://www.inkscape.org/) -->

<svg
   xmlns:dc="http://purl.org/dc/elements/1.1/"
   xmlns:cc="http://creativecommons.org/ns#"
   xmlns:rdf="http://www.w3.org/1999/02/22-rdf-syntax-ns#"
   xmlns:svg="http://www.w3.org/2000/svg"
   xmlns="http://www.w3.org/2000/svg"
   xmlns:sodipodi="http://sodipodi.sourceforge.net/DTD/sodipodi-0.dtd"
   xmlns:inkscape="http://www.inkscape.org/namespaces/inkscape"
   width="22"
   height="22"
   viewBox="0 0 5.8208332 5.8208335"
   version="1.1"
   id="svg8"
   inkscape:version="0.92+devel unknown"
   sodipodi:docname="glyph-gps.svg">
  <defs
     id="defs2" />
  <sodipodi:namedview
     id="base"
     pagecolor="#002466"
     bordercolor="#ffffff"
     borderopacity="0.37647059"
     inkscape:pageopacity="1"
     inkscape:pageshadow="2"
     inkscape:zoom="37.227273"
     inkscape:cx="11"
     inkscape:cy="11"
     inkscape:document-units="px"
     inkscape:current-layer="svg8"
     inkscape:document-rotation="0"
     showgrid="false"
     inkscape:showpageshadow="false"
     borderlayer="true"
     units="px"
     inkscape:window-width="1920"
     inkscape:window-height="1051"
     inkscape:window-x="0"
     inkscape:window-y="0"
     inkscape:window-maximized="1" />
  <metadata
     id="metadata5">
    <rdf:RDF>
      <cc:Work
         rdf:about="">
        <dc:format>image/svg+xml</dc:format>
        <dc:type
           rdf:resource="http://purl.org/dc/dcmitype/StillImage" />
        <dc:title></dc:title>
      </cc:Work>
    </rdf:RDF>
  </metadata>
  <path
     style="fill:#d0d0d0;fill-opacity:1;stroke:none;stroke-width:1.375"
     d="M 11 0 C 7.1912473 5.9211895e-16 4.125 3.0662473 4.125 6.875 C 4.125 8.0374523 4.4381787 9.1122522 4.9433594 10.070312 L 11 22 L 17.056641 10.070312 C 17.561821 9.1122522 17.875 8.0374523 17.875 6.875 C 17.875 3.0662473 14.808752 0 11 0 z M 11 3.1933594 A 3.370281 3.370281 0 0 1 14.371094 6.5644531 A 3.370281 3.370281 0 0 1 11 9.9355469 A 3.370281 3.370281 0 0 1 7.6289062 6.5644531 A 3.370281 3.370281 0 0 1 11 3.1933594 z "
     transform="scale(0.26458333)"
     id="path4836" />
</svg>
